svg/Octicons/person.svg

<svg height="1024" width="512" xmlns="http://www.w3.org/2000/svg">
  <path d="M448 192C448 86 362.062 0 256 0S64 86 64 192c0 106.062 85.938 192 192 192S448 298.062 448 192zM256 320c-70.656 0-128-57.344-128-128S185.344 64 256 64c70.625 0 128 57.344 128 128S326.625 320 256 320zM384 384H256 128C57.344 384 0 441.344 0 512v128c0 70.625 57.344 128 128 128v256h256V768c70.625 0 128-57.375 128-128V512C512 441.344 454.625 384 384 384zM448 640c0 35.375-28.625 64-64 64V576h-64v384H192V576h-64v128c-35.312 0-64-28.625-64-64V512c0-35.312 28.688-64 64-64h256c35.375 0 64 28.688 64 64V640z" />
</svg>

<svg xmlns="http://www.w3.org/2000/svg" viewBox="0 0 512 1024"><path d="m448 192c0-106-85.938-192-192-192s-192 86-192 192c0 106.06 85.938 192 192 192s192-85.938 192-192m-192 128c-70.66 0-128-57.34-128-128s57.34-128 128-128c70.62 0 128 57.34 128 128s-57.37 128-128 128m128 64h-128-128c-70.66 0-128 57.34-128 128v128c0 70.62 57.34 128 128 128v256h256v-256c70.62 0 128-57.37 128-128v-128c0-70.66-57.37-128-128-128m64 256c0 35.37-28.625 64-64 64v-128h-64v384h-128v-384h-64v128c-35.31 0-64-28.625-64-64v-128c0-35.31 28.688-64 64-64h256c35.37 0 64 28.688 64 64v128"/></svg>
